X: 8791
T: Cuckoo's Nest, The
R: barndance
M: 4/4
K: Edorian
|:EF|G2 GF E2 e2|B2 AG A4|GF E2 D2 EF|G2 E2 E2:|
|:z2|e2 e2 e2 fe|_e2 B2 B3 c|d2 d2 d2 d2|cdcB A2 A2|
GAGF E2 e2|B2 AG A4|GF E2 D2 EF|G2 E2 E2:|

